dist/img/svg/Subtract.svg

<svg width="927" height="820" fill="none" xmlns="http://www.w3.org/2000/svg"><path fill-rule="evenodd" clip-rule="evenodd" d="M503.24-100.388c26.939 4.81 54.271 9.69 83.436 18.996l1.734.565c41.386 13.465 258.638 84.149 323.633 341.063 65.965 260.746-96.554 485.053-334.134 545.157-237.579 60.103-498.806-72.7-563.023-326.539-64.217-253.839 104.29-422.105 136.053-450.011 9.206-8.53 17.899-16.153 26.368-23.582 25.908-22.724 49.736-43.625 79.861-83.013 18.61-25.638 32.467-58.421 22.153-128.066 46.226 33.457 101.078 71.905 136.868 84.838 29.747 10.359 58.173 15.435 87.051 20.592zM247.917 583.104c-18.349-76.724 35.4-166.75 125.825-190.978 67.12-17.598 132.161 7.37 186.212 28.119 38.62 14.825 71.629 27.496 95.775 20.946 24.704-6.783 54.807-40.713 84.524-74.208 29.256-32.976 58.139-65.531 81.128-71.347 49.277-12.466 76.007 35.212 83.724 65.712 7.716 30.501 11.797 88.083-2.859 128.417-14.657 40.335-26.806 57.048-54.605 61.964-16.824 2.809-47.15-15.571-79.403-35.118-37.204-22.548-76.971-46.65-101.53-41.57-25.566 5.534-58.061 38.249-94.778 75.214-46.543 46.858-99.87 100.546-154.467 114.358-59.132 14.96-79.099 10.546-102.095 2.783-34.793-13.186-57.489-40.955-67.493-84.458l.042.166zm459.775-35.713c-13.737-4.932-30.765-1.682-46.544 2.31l.055-.014c-1.835.464-3.58.891-5.256 1.301-12.734 3.117-21.43 5.246-34.663 15.088-14.689 10.926-28.025 30.561-36.631 43.233l-.495.728c-8.585 12.637-8.413 21.236-.559 27.362 7.816 6.098 12.489-.23 25.642-18.039l.187-.253a603.196 603.196 0 003.369-4.622l.005-.007.001-.001c11.494-15.87 20.789-28.704 52.274-36.669 33.739-8.535 43.128 1.857 53.086 12.881l.371.41.299.33.101.112c10.128 11.188 11.624 12.84 17.477 7.199a14.263 14.263 0 006.545-10.155 14.21 14.21 0 00-3.603-11.518l-.079-.109c-6.435-8.862-17.902-24.655-31.582-29.567zm-62.211 156.013c-63.118 15.968-95.927 10.629-119.621-.132l.138-.153a45.017 45.017 0 01-1.235-.452l-.003-.002c-2.043-.774-2.043-.774-7.114.509a23.665 23.665 0 00-13.049 10.592 14.576 14.576 0 00.717 16.805 14.586 14.586 0 004.511 3.86c53.319 28.429 124.541 7.236 176.56-11.156a220.871 220.871 0 0093.025-67.509 15.384 15.384 0 002.66-8.828 15.362 15.362 0 00-2.867-8.757c-2.004-3.726-7.472-8.575-14.597.518-16.145 19.781-56.006 48.737-119.125 64.705z" fill="url(#paint0_linear_94:303)" fill-opacity=".192"/><defs><linearGradient id="paint0_linear_94:303" x1="1946.24" y1="-1263.97" x2="-87.818" y2="-375.764" gradientUnits="userSpaceOnUse"><stop/><stop offset="1" stop-color="#fff" stop-opacity="0"/></linearGradient></defs></svg>

<svg width="927" height="820" viewBox="0 0 927 820" fill="none" xmlns="http://www.w3.org/2000/svg">
<path fill-rule="evenodd" clip-rule="evenodd" d="M503.24 -100.388C530.179 -95.578 557.511 -90.6975 586.676 -81.3918C587.214 -81.2161 587.792 -81.028 588.41 -80.8271C629.796 -67.362 847.048 3.32202 912.043 260.236C978.008 520.982 815.489 745.289 577.909 805.393C340.33 865.496 79.1028 732.693 14.8857 478.854C-49.3314 225.015 119.176 56.7491 150.939 28.8425C160.145 20.3139 168.838 12.6899 177.307 5.26083C203.215 -17.4633 227.043 -38.3635 257.168 -77.7522C275.778 -103.39 289.635 -136.173 279.321 -205.818C325.547 -172.361 380.399 -133.913 416.189 -120.98C445.936 -110.621 474.362 -105.545 503.24 -100.388ZM247.917 583.104C229.568 506.38 283.317 416.354 373.742 392.126C440.862 374.528 505.903 399.496 559.954 420.245C598.574 435.07 631.583 447.741 655.729 441.191C680.433 434.408 710.536 400.478 740.253 366.983C769.509 334.007 798.392 301.452 821.381 295.636C870.658 283.17 897.388 330.848 905.105 361.348C912.821 391.849 916.902 449.431 902.246 489.765C887.589 530.1 875.44 546.813 847.641 551.729C830.817 554.538 800.491 536.158 768.238 516.611C731.034 494.063 691.267 469.961 666.708 475.041C641.142 480.575 608.647 513.29 571.93 550.255C525.387 597.113 472.06 650.801 417.463 664.613C358.331 679.573 338.364 675.159 315.368 667.396C280.575 654.21 257.879 626.441 247.875 582.938L247.917 583.104ZM707.692 547.391C693.955 542.459 676.927 545.709 661.148 549.701L661.203 549.687C659.368 550.151 657.623 550.578 655.947 550.988C643.213 554.105 634.517 556.234 621.284 566.076C606.595 577.002 593.259 596.637 584.653 609.309L584.158 610.037C575.573 622.674 575.745 631.273 583.599 637.399C591.415 643.497 596.088 637.169 609.241 619.36L609.428 619.107C610.585 617.54 611.701 615.999 612.797 614.485L612.802 614.478L612.803 614.477C624.297 598.607 633.592 585.773 665.077 577.808C698.816 569.273 708.205 579.665 718.163 590.689L718.534 591.099L718.833 591.429L718.934 591.541C729.062 602.729 730.558 604.381 736.411 598.74C738.18 597.628 739.683 596.142 740.813 594.387C741.944 592.632 742.676 590.652 742.956 588.585C743.237 586.518 743.06 584.415 742.437 582.425C741.814 580.434 740.761 578.605 739.353 577.067L739.274 576.958C732.839 568.096 721.372 552.303 707.692 547.391ZM645.481 703.404C582.363 719.372 549.554 714.033 525.86 703.272L525.998 703.119C525.506 702.948 525.106 702.797 524.763 702.667L524.76 702.665C522.717 701.891 522.717 701.891 517.646 703.174C512.145 704.991 507.501 708.76 504.597 713.766C503.513 715.448 502.787 717.334 502.464 719.307C502.141 721.28 502.227 723.298 502.717 725.235C503.207 727.173 504.091 728.989 505.314 730.571C506.536 732.153 508.072 733.466 509.825 734.431C563.144 762.86 634.366 741.667 686.385 723.275C722.817 709.369 754.916 686.075 779.41 655.766C781.179 653.163 782.107 650.082 782.07 646.938C782.033 643.794 781.032 640.738 779.203 638.181C777.199 634.455 771.731 629.606 764.606 638.699C748.461 658.48 708.6 687.436 645.481 703.404Z" fill="url(#paint0_linear_94:303)" fill-opacity="0.192"/>
<defs>
<linearGradient id="paint0_linear_94:303" x1="1946.24" y1="-1263.97" x2="-87.8178" y2="-375.764" gradientUnits="userSpaceOnUse">
<stop/>
<stop offset="1" stop-color="white" stop-opacity="0"/>
</linearGradient>
</defs>
</svg>
